X: 21840
T: Kipeen Scanlon's
R: hornpipe
M: 4/4
K: Gmajor
BdGB AcFA|GBDC B,DGF|EGcB Acfg|a2 ge fdcA|
BdGB AcFA|GDB,D GBDG|EcBc DAFA|G2 B2 G2:|
d2 Bd bgdB|c2 Ac agfe|d2 Bd c2 Ac|BdGd ADFA|
B2 dB cAFA|GDB,D GBDG|ECA,C DAFA|G2 D2 G,2:|

